co/pause_circle_outline.svg

<svg viewBox="0 0 24 24" fill="none" xmlns="http://www.w3.org/2000/svg" height="1em" width="1em">
  <path d="M12 22C6.47967 21.994 2.00606 17.5204 2 12V11.8C2.10993 6.30455 6.63459 1.92797 12.1307 2.0009C17.6268 2.07382 22.0337 6.5689 21.9978 12.0654C21.9619 17.5618 17.4966 21.9989 12 22ZM11.984 20H12C16.4167 19.9956 19.9942 16.4127 19.992 11.996C19.9898 7.57931 16.4087 4.00002 11.992 4.00002C7.57528 4.00002 3.99421 7.57931 3.992 11.996C3.98979 16.4127 7.56729 19.9956 11.984 20ZM15 16H13V8.00002H15V16ZM11 16H9V8.00002H11V16Z" fill="black"/>
</svg>

<svg viewBox="0 0 24 24" fill="none" xmlns="http://www.w3.org/2000/svg" height="1em" width="1em">
  <path d="M12 22c-5.52-.006-9.994-4.48-10-10v-.2C2.11 6.305 6.635 1.928 12.13 2c5.497.074 9.904 4.569 9.868 10.065C21.962 17.562 17.497 22 12 22Zm-.016-2H12a8 8 0 1 0-.016 0ZM15 16h-2V8h2v8Zm-4 0H9V8h2v8Z" fill="#000"/>
</svg>
